flaticon/technology/tablet-3.svg

<svg xmlns="http://www.w3.org/2000/svg" width="32" height="32" viewBox="0 0 24 24">
    <path d="M 22.328125 3.601562 L 1.671875 3.601562 C 0.75 3.601562 0 4.351562 0 5.269531 L 0 18.730469 C 0 19.648438 0.75 20.398438 1.671875 20.398438 L 22.328125 20.398438 C 23.25 20.398438 24 19.648438 24 18.730469 L 24 5.269531 C 24 4.351562 23.25 3.601562 22.328125 3.601562 Z M 23.199219 18.730469 C 23.199219 19.210938 22.808594 19.601562 22.328125 19.601562 L 1.671875 19.601562 C 1.191406 19.601562 0.800781 19.210938 0.800781 18.730469 L 0.800781 5.269531 C 0.800781 4.789062 1.191406 4.398438 1.671875 4.398438 L 22.328125 4.398438 C 22.808594 4.398438 23.199219 4.789062 23.199219 5.269531 Z M 23.199219 18.730469"/>
    <path d="M1.601562 18L22.398438 18 22.398438 5.199219 1.601562 5.199219zM2.398438 6L21.601562 6 21.601562 17.199219 2.398438 17.199219zM12.800781 18.398438L11.199219 18.398438C10.980469 18.398438 10.800781 18.578125 10.800781 18.800781 10.800781 19.019531 10.980469 19.199219 11.199219 19.199219L12.800781 19.199219C13.019531 19.199219 13.199219 19.019531 13.199219 18.800781 13.199219 18.578125 13.019531 18.398438 12.800781 18.398438zM12.800781 18.398438"/>
    <path d="M3.601562 9.199219C3.703125 9.199219 3.804688 9.160156 3.882812 9.082031L5.484375 7.484375C5.640625 7.328125 5.640625 7.074219 5.484375 6.917969 5.328125 6.761719 5.074219 6.761719 4.917969 6.917969L3.316406 8.515625C3.160156 8.671875 3.160156 8.925781 3.316406 9.082031 3.394531 9.160156 3.496094 9.199219 3.601562 9.199219zM3.601562 11.199219C3.703125 11.199219 3.804688 11.160156 3.882812 11.082031L4.683594 10.28125C4.839844 10.125 4.839844 9.875 4.683594 9.71875 4.527344 9.5625 4.273438 9.5625 4.117188 9.71875L3.316406 10.515625C3.160156 10.671875 3.160156 10.925781 3.316406 11.082031 3.394531 11.160156 3.496094 11.199219 3.601562 11.199219zM4.914062 8.914062C4.84375 8.992188 4.800781 9.09375 4.800781 9.199219 4.800781 9.308594 4.84375 9.40625 4.914062 9.484375 4.992188 9.554688 5.097656 9.601562 5.199219 9.601562 5.304688 9.601562 5.40625 9.554688 5.484375 9.484375 5.554688 9.40625 5.601562 9.308594 5.601562 9.199219 5.601562 9.097656 5.554688 8.992188 5.484375 8.914062 5.332031 8.769531 5.0625 8.769531 4.914062 8.914062zM5.71875 8.683594C5.796875 8.761719 5.898438 8.800781 6 8.800781 6.101562 8.800781 6.203125 8.761719 6.28125 8.683594L7.484375 7.484375C7.640625 7.328125 7.640625 7.074219 7.484375 6.917969 7.328125 6.761719 7.074219 6.761719 6.917969 6.917969L5.71875 8.117188C5.5625 8.273438 5.5625 8.527344 5.71875 8.683594zM6.917969 8.917969L3.316406 12.515625C3.160156 12.671875 3.160156 12.925781 3.316406 13.082031 3.394531 13.160156 3.496094 13.199219 3.601562 13.199219 3.703125 13.199219 3.804688 13.160156 3.882812 13.082031L7.484375 9.484375C7.640625 9.328125 7.640625 9.074219 7.484375 8.917969 7.328125 8.761719 7.074219 8.761719 6.917969 8.917969zM7.714844 8.117188C7.644531 8.191406 7.601562 8.296875 7.601562 8.398438 7.601562 8.503906 7.644531 8.609375 7.714844 8.683594 7.792969 8.757812 7.894531 8.800781 8 8.800781 8.105469 8.800781 8.207031 8.757812 8.285156 8.683594 8.355469 8.609375 8.398438 8.503906 8.398438 8.398438 8.398438 8.296875 8.355469 8.191406 8.285156 8.117188 8.136719 7.96875 7.867188 7.96875 7.714844 8.117188zM8.917969 6.917969L8.515625 7.316406C8.359375 7.472656 8.359375 7.726562 8.515625 7.882812 8.59375 7.960938 8.699219 8 8.800781 8 8.902344 8 9.003906 7.960938 9.082031 7.882812L9.484375 7.484375C9.640625 7.328125 9.640625 7.074219 9.484375 6.917969 9.328125 6.761719 9.074219 6.761719 8.917969 6.917969zM8.917969 6.917969"/>
</svg>

<svg xmlns="http://www.w3.org/2000/svg" width="32" height="32" viewBox="0 0 24 24">
    <path d="M22.328 3.602H1.672C.75 3.602 0 4.352 0 5.27v13.46c0 .918.75 1.668 1.672 1.668h20.656c.922 0 1.672-.75 1.672-1.668V5.27c0-.918-.75-1.668-1.672-1.668zM23.2 18.73c0 .48-.39.872-.87.872H1.671A.872.872 0 0 1 .8 18.73V5.27c0-.48.39-.872.87-.872h20.657c.48 0 .871.391.871.872zm0 0"/>
    <path d="M1.602 18h20.796V5.2H1.602zm.796-12h19.204v11.2H2.398zm0 0M12.8 18.398h-1.6a.401.401 0 0 0 0 .801h1.6a.4.4 0 0 0 0-.8zm0 0"/>
    <path d="M3.602 9.2c.101 0 .203-.04.28-.118l1.602-1.598a.4.4 0 0 0-.566-.566L3.316 8.516a.4.4 0 0 0 .286.683zm0 0M3.602 11.2c.101 0 .203-.04.28-.118l.802-.8a.396.396 0 0 0 0-.563.4.4 0 0 0-.567 0l-.8.797a.4.4 0 0 0 .285.683zm0 0M4.914 8.914a.43.43 0 0 0-.113.285c0 .11.043.207.113.285.078.07.184.118.285.118a.434.434 0 0 0 .285-.118.426.426 0 0 0 .118-.285.442.442 0 0 0-.118-.285.43.43 0 0 0-.57 0zm0 0M5.719 8.684a.396.396 0 0 0 .562 0l1.203-1.2a.4.4 0 0 0-.566-.566l-1.2 1.2a.4.4 0 0 0 0 .566zm0 0M6.918 8.918l-3.602 3.598a.4.4 0 0 0 .567.566l3.601-3.598a.4.4 0 0 0-.566-.566zm0 0M7.715 8.117a.42.42 0 0 0-.113.281c0 .106.043.211.113.286.078.074.18.117.285.117a.416.416 0 0 0 .285-.117.423.423 0 0 0 .113-.286.42.42 0 0 0-.113-.28.42.42 0 0 0-.57 0zm0 0M8.918 6.918l-.402.398a.4.4 0 0 0 .566.567l.402-.399a.4.4 0 0 0-.566-.566zm0 0"/>
</svg>
